build/svg/cmd/32/distributecolumns.svg

<?xml version="1.0" encoding="UTF-8" standalone="no"?>
<svg
   xmlns:dc="http://purl.org/dc/elements/1.1/"
   xmlns:cc="http://creativecommons.org/ns#"
   xmlns:rdf="http://www.w3.org/1999/02/22-rdf-syntax-ns#"
   xmlns:svg="http://www.w3.org/2000/svg"
   xmlns="http://www.w3.org/2000/svg"
   xmlns:sodipodi="http://sodipodi.sourceforge.net/DTD/sodipodi-0.dtd"
   xmlns:inkscape="http://www.inkscape.org/namespaces/inkscape"
   viewBox="0 0 32 32"
   version="1.1"
   id="svg4"
   sodipodi:docname="distributecolumns.svg"
   inkscape:export-filename="/home/jupiter007/Libreoffice yaru theme fullcolor/build/cmd/32/distributecolumns.png"
   inkscape:export-xdpi="95"
   inkscape:export-ydpi="95"
   inkscape:version="0.92.5 (2060ec1f9f, 2020-04-08)">
  <metadata
     id="metadata10">
    <rdf:RDF>
      <cc:Work
         rdf:about="">
        <dc:format>image/svg+xml</dc:format>
        <dc:type
           rdf:resource="http://purl.org/dc/dcmitype/StillImage" />
      </cc:Work>
    </rdf:RDF>
  </metadata>
  <defs
     id="defs8" />
  <sodipodi:namedview
     pagecolor="#ffffff"
     bordercolor="#666666"
     borderopacity="1"
     objecttolerance="10"
     gridtolerance="10"
     guidetolerance="10"
     inkscape:pageopacity="0"
     inkscape:pageshadow="2"
     inkscape:window-width="1920"
     inkscape:window-height="1011"
     id="namedview6"
     showgrid="true"
     inkscape:zoom="10.429825"
     inkscape:cx="5.7066476"
     inkscape:cy="16.158857"
     inkscape:window-x="0"
     inkscape:window-y="32"
     inkscape:window-maximized="1"
     inkscape:current-layer="svg4">
    <inkscape:grid
       type="xygrid"
       id="grid847" />
  </sodipodi:namedview>
  <path
     sodipodi:nodetypes="cccccccc"
     style="opacity:0.6;fill:#000000;fill-opacity:1;stroke:#000000;stroke-width:2;stroke-linecap:butt;stroke-linejoin:round;stroke-miterlimit:4;stroke-dasharray:none;stroke-opacity:1"
     d="M 28.999999,16 24,20 V 17 H 18.999999 V 15 H 24 v -3 z"
     id="path829"
     inkscape:connector-curvature="0" />
  <path
     sodipodi:nodetypes="cccccccc"
     id="path831"
     d="M 28.999999,16 24,20 V 17 H 18.999999 V 15 H 24 v -3 z"
     style="fill:#aee3f8;fill-opacity:1;stroke:none;stroke-width:1px;stroke-linecap:butt;stroke-linejoin:miter;stroke-opacity:1"
     inkscape:connector-curvature="0" />
  <rect
     style="opacity:1;fill:#ffffff;fill-opacity:1;stroke:none;stroke-width:2;stroke-linejoin:round;stroke-miterlimit:4;stroke-dasharray:none"
     id="rect817"
     width="24"
     height="4"
     x="-28"
     y="14"
     transform="rotate(-90)" />
  <path
     d="m 13,29 h 6 V 3 h -6 z m 1,-1.000001 v -4 h 4 v 4 z m 0,-5 V 19 h 4 v 3.999999 z M 14,18 v -4 h 4 v 4 z m 0,-5 V 9 h 4 v 4 z M 14,8 V 4 h 4 v 4 z"
     id="path2"
     inkscape:connector-curvature="0"
     style="fill:#6d6d6d;fill-opacity:1"
     sodipodi:nodetypes="cccccccccccccccccccccccccccccc" />
  <rect
     y="7"
     x="-28"
     height="4"
     width="24"
     id="rect831"
     style="opacity:1;fill:#ffffff;fill-opacity:1;stroke:none;stroke-width:2;stroke-linejoin:round;stroke-miterlimit:4;stroke-dasharray:none"
     transform="rotate(-90)" />
  <path
     sodipodi:nodetypes="cccccccccccccccccccccccccccccc"
     style="fill:#6d6d6d;fill-opacity:1"
     inkscape:connector-curvature="0"
     id="path833"
     d="M 5.9999999,29 H 12 V 3 H 5.9999999 Z m 1,-1.000001 v -4 H 11 v 4 z m 0,-5 V 19 H 11 v 3.999999 z m 0,-4.999999 V 14 H 11 v 4 z m 0,-5 V 9 H 11 v 4 z m 0,-5 V 4 H 11 v 4 z" />
</svg>

<svg xmlns="http://www.w3.org/2000/svg" viewBox="0 0 32 32"><path d="M29 16l-5 4v-3h-5v-2h5v-3z" opacity=".6" stroke="#000" stroke-width="2" stroke-linejoin="round"/><path d="M29 16l-5 4v-3h-5v-2h5v-3z" fill="#aee3f8"/><path fill="#fff" d="M14 28V4h4v24z"/><path d="M13 29h6V3h-6zm1-1v-4h4v4zm0-5v-4h4v4zm0-5v-4h4v4zm0-5V9h4v4zm0-5V4h4v4z" fill="#6d6d6d"/><path fill="#fff" d="M7 28V4h4v24z"/><path d="M6 29h6V3H6zm1-1v-4h4v4zm0-5v-4h4v4zm0-5v-4h4v4zm0-5V9h4v4zm0-5V4h4v4z" fill="#6d6d6d"/></svg>
